build/img/sprite/play.svg

<svg width="24" height="24" viewBox="0 0 24 24" fill="none" xmlns="http://www.w3.org/2000/svg">
<path d="M8.46313 17.6799C8.75977 17.6799 9.01685 17.5876 9.35303 17.3899L17.2039 12.8416C17.7905 12.4988 18.0608 12.2087 18.0608 11.7473C18.0608 11.2859 17.7905 10.9958 17.2039 10.6531L9.35303 6.10474C9.01685 5.91357 8.75977 5.8147 8.46313 5.8147C7.88306 5.8147 7.44141 6.25635 7.44141 6.98145V16.5198C7.44141 17.2383 7.88306 17.6799 8.46313 17.6799Z" fill="black" fill-opacity="0.8"/>
</svg>

<svg width="24" height="24" fill="none" xmlns="http://www.w3.org/2000/svg"><path d="M8.463 17.68c.297 0 .554-.092.89-.29l7.85-4.548c.588-.343.858-.633.858-1.095 0-.461-.27-.751-.857-1.094L9.353 6.105c-.336-.191-.593-.29-.89-.29-.58 0-1.022.441-1.022 1.166v9.539c0 .718.442 1.16 1.022 1.16Z" fill="#000" fill-opacity=".8"/></svg>
